Sources/FrostedUI/Resources/Icons.xcassets/creditCard12.imageset/credit-card-12.svg

<svg width="12" height="12" viewBox="0 0 12 12" fill="none" xmlns="http://www.w3.org/2000/svg" data-fui-icon="true">
  <path
    d="M9.7998 1.5C11.0148 1.5 12 2.48517 12 3.7002V8.7998C12 10.0148 11.0148 11 9.7998 11H2.2002C0.985169 11 0 10.0148 0 8.7998V3.7002C0 2.48517 0.985169 1.5 2.2002 1.5H9.7998ZM1.5 8.7998C1.5 9.1864 1.8136 9.5 2.2002 9.5H9.7998C10.1864 9.5 10.5 9.1864 10.5 8.7998V6H1.5V8.7998ZM4.25 7C4.66421 7 5 7.33579 5 7.75C5 8.16421 4.66421 8.5 4.25 8.5H3.75C3.33579 8.5 3 8.16421 3 7.75C3 7.33579 3.33579 7 3.75 7H4.25ZM2.2002 3C1.8136 3 1.5 3.3136 1.5 3.7002V4.5H10.5V3.7002C10.5 3.3136 10.1864 3 9.7998 3H2.2002Z"
    fill="currentColor"
  />
</svg>

<svg xmlns="http://www.w3.org/2000/svg" width="12" height="12" fill="none" data-fui-icon="true" viewBox="0 0 12 12"><path fill="currentColor" d="M9.8 1.5A2.2 2.2 0 0 1 12 3.7v5.1A2.2 2.2 0 0 1 9.8 11H2.2A2.2 2.2 0 0 1 0 8.8V3.7a2.2 2.2 0 0 1 2.2-2.2zM1.5 8.8a.7.7 0 0 0 .7.7h7.6a.7.7 0 0 0 .7-.7V6h-9zM4.25 7a.75.75 0 0 1 0 1.5h-.5a.75.75 0 0 1 0-1.5zM2.2 3a.7.7 0 0 0-.7.7v.8h9v-.8a.7.7 0 0 0-.7-.7z"/></svg>
